Newaita/actions/32/view-certificate-server-configure.svg

<svg height="32" viewBox="0 0 32 32" width="32" xmlns="http://www.w3.org/2000/svg"><g fill="#424242"><path d="m5.292969 5.542969c-1.464844 0-2.648438 1.179687-2.648438 2.644531v15.878906c0 1.464844 1.183594 2.644532 2.648438 2.644532h11.90625v-2.644532h-10.585938c-.730469 0-1.320312-.589844-1.320312-1.324218v-13.230469c0-.734375.589843-1.324219 1.320312-1.324219h18.523438c.734375 0 1.324219.589844 1.324219 1.324219v6.613281h2.644531v-7.9375c0-1.464844-1.179688-2.644531-2.644531-2.644531zm0 0"/><path d="m18.851562 10.835938h4.632813c.183594 0 .332031.148437.332031.328124v.664063c0 .179687-.148437.328125-.332031.328125h-4.632813c-.179687 0-.328124-.148438-.328124-.328125v-.664063c0-.179687.148437-.328124.328124-.328124zm0 0"/><path d="m18.851562 14.804688h4.632813c.183594 0 .332031.148437.332031.328124v.664063c0 .179687-.148437.328125-.332031.328125h-4.632813c-.179687 0-.328124-.148438-.328124-.328125v-.664063c0-.179687.148437-.328124.328124-.328124zm0 0"/><path d="m9.261719 11.496094c-.734375 0-1.324219.589844-1.324219 1.324218v6.613282c0 .734375.589844 1.324218 1.324219 1.324218h5.292969c.730468 0 1.320312-.589843 1.320312-1.324218v-6.613282c0-.734374-.589844-1.324218-1.320312-1.324218zm2.644531 1.324218h1.984375c.367187 0 .664063.292969.664063.660157v1.984375h-2.648438zm-2.644531 3.96875h5.292969v1.984376c0 .367187-.296876.660156-.664063.660156h-3.96875c-.367187 0-.660156-.292969-.660156-.660156zm0 0"/><path d="m20.507812 18.773438h7.9375c.367188 0 .660157.296874.660157.660156v1.324218c0 .363282-.292969.660157-.660157.660157h-7.9375c-.367187 0-.664062-.296875-.664062-.660157v-1.324218c0-.363282.296875-.660156.664062-.660156zm0 0"/><path d="m20.507812 24.066406h7.9375c.367188 0 .660157.292969.660157.660156v1.324219c0 .363281-.292969.660157-.660157.660157h-7.9375c-.367187 0-.664062-.296876-.664062-.660157v-1.324219c0-.367187.296875-.660156.664062-.660156zm0 0"/></g></svg>

<svg xmlns="http://www.w3.org/2000/svg" xmlns:xlink="http://www.w3.org/1999/xlink" width="32px" height="32px" viewBox="0 0 32 32" version="1.1">
<g id="surface1">
     <defs>
  <style id="current-color-scheme" type="text/css">
   .ColorScheme-Text { color:#424242; } .ColorScheme-Highlight { color:#eeeeee; }
  </style>
 </defs>
<path style="fill:currentColor" class="ColorScheme-Text" d="M 5.292969 5.542969 C 3.828125 5.542969 2.644531 6.722656 2.644531 8.1875 L 2.644531 24.066406 C 2.644531 25.53125 3.828125 26.710938 5.292969 26.710938 L 17.199219 26.710938 L 17.199219 24.066406 L 6.613281 24.066406 C 5.882812 24.066406 5.292969 23.476562 5.292969 22.742188 L 5.292969 9.511719 C 5.292969 8.777344 5.882812 8.1875 6.613281 8.1875 L 25.136719 8.1875 C 25.871094 8.1875 26.460938 8.777344 26.460938 9.511719 L 26.460938 16.125 L 29.105469 16.125 L 29.105469 8.1875 C 29.105469 6.722656 27.925781 5.542969 26.460938 5.542969 Z M 5.292969 5.542969 "/>
     <defs>
  <style id="current-color-scheme" type="text/css">
   .ColorScheme-Text { color:#424242; } .ColorScheme-Highlight { color:#eeeeee; }
  </style>
 </defs>
<path style="fill:currentColor" class="ColorScheme-Text" d="M 18.851562 10.835938 L 23.484375 10.835938 C 23.667969 10.835938 23.816406 10.984375 23.816406 11.164062 L 23.816406 11.828125 C 23.816406 12.007812 23.667969 12.15625 23.484375 12.15625 L 18.851562 12.15625 C 18.671875 12.15625 18.523438 12.007812 18.523438 11.828125 L 18.523438 11.164062 C 18.523438 10.984375 18.671875 10.835938 18.851562 10.835938 Z M 18.851562 10.835938 "/>
     <defs>
  <style id="current-color-scheme" type="text/css">
   .ColorScheme-Text { color:#424242; } .ColorScheme-Highlight { color:#eeeeee; }
  </style>
 </defs>
<path style="fill:currentColor" class="ColorScheme-Text" d="M 18.851562 14.804688 L 23.484375 14.804688 C 23.667969 14.804688 23.816406 14.953125 23.816406 15.132812 L 23.816406 15.796875 C 23.816406 15.976562 23.667969 16.125 23.484375 16.125 L 18.851562 16.125 C 18.671875 16.125 18.523438 15.976562 18.523438 15.796875 L 18.523438 15.132812 C 18.523438 14.953125 18.671875 14.804688 18.851562 14.804688 Z M 18.851562 14.804688 "/>
     <defs>
  <style id="current-color-scheme" type="text/css">
   .ColorScheme-Text { color:#424242; } .ColorScheme-Highlight { color:#eeeeee; }
  </style>
 </defs>
<path style="fill:currentColor" class="ColorScheme-Text" d="M 9.261719 11.496094 C 8.527344 11.496094 7.9375 12.085938 7.9375 12.820312 L 7.9375 19.433594 C 7.9375 20.167969 8.527344 20.757812 9.261719 20.757812 L 14.554688 20.757812 C 15.285156 20.757812 15.875 20.167969 15.875 19.433594 L 15.875 12.820312 C 15.875 12.085938 15.285156 11.496094 14.554688 11.496094 Z M 11.90625 12.820312 L 13.890625 12.820312 C 14.257812 12.820312 14.554688 13.113281 14.554688 13.480469 L 14.554688 15.464844 L 11.90625 15.464844 Z M 9.261719 16.789062 L 14.554688 16.789062 L 14.554688 18.773438 C 14.554688 19.140625 14.257812 19.433594 13.890625 19.433594 L 9.921875 19.433594 C 9.554688 19.433594 9.261719 19.140625 9.261719 18.773438 Z M 9.261719 16.789062 "/>
     <defs>
  <style id="current-color-scheme" type="text/css">
   .ColorScheme-Text { color:#424242; } .ColorScheme-Highlight { color:#eeeeee; }
  </style>
 </defs>
<path style="fill:currentColor" class="ColorScheme-Text" d="M 20.507812 18.773438 L 28.445312 18.773438 C 28.8125 18.773438 29.105469 19.070312 29.105469 19.433594 L 29.105469 20.757812 C 29.105469 21.121094 28.8125 21.417969 28.445312 21.417969 L 20.507812 21.417969 C 20.140625 21.417969 19.84375 21.121094 19.84375 20.757812 L 19.84375 19.433594 C 19.84375 19.070312 20.140625 18.773438 20.507812 18.773438 Z M 20.507812 18.773438 "/>
     <defs>
  <style id="current-color-scheme" type="text/css">
   .ColorScheme-Text { color:#424242; } .ColorScheme-Highlight { color:#eeeeee; }
  </style>
 </defs>
<path style="fill:currentColor" class="ColorScheme-Text" d="M 20.507812 24.066406 L 28.445312 24.066406 C 28.8125 24.066406 29.105469 24.359375 29.105469 24.726562 L 29.105469 26.050781 C 29.105469 26.414062 28.8125 26.710938 28.445312 26.710938 L 20.507812 26.710938 C 20.140625 26.710938 19.84375 26.414062 19.84375 26.050781 L 19.84375 24.726562 C 19.84375 24.359375 20.140625 24.066406 20.507812 24.066406 Z M 20.507812 24.066406 "/>
</g>
</svg>
